X:96
T:Duke of Gordon's Birth Day,The. RH.096
R:Reel
S:Rev.R.Harrison's MS,c1815,Cumbria
O:England
A:Temple Sowerby,Cumbria
Z:vmp.Simon Wilson. Review PJH, 2008.
M:C
L:1/8
Q:2/4=90
K:G
|:G>DGB G>DGB|dBgB A/A/AA2|\
G>DGB G>DGB|dcBA G/G/GG2:|!
ggbg d/d/dd2|Ggbg e/e/e (ef)|\
gdeg dgBg|AGAB G/G/GG2|!
ggbg d/d/dd2|Ggbg e/e/e (ef)|\
g>be>g d>gB>b|A>GAB G/G/GG2|]

